app/assets/images/review.svg

<svg width="490" height="490" xmlns="http://www.w3.org/2000/svg">

 <g>
  <title>background</title>
  <rect fill="none" id="canvas_background" height="402" width="582" y="-1" x="-1"/>
 </g>
 <g>
  <title>Layer 1</title>
  <g id="svg_1">
   <g id="svg_2">
    <path fill="#3f007f" id="svg_3" d="m393.872,454.517c-2.304,0 -4.583,-0.804 -6.412,-2.354l-99.315,-84.194l-220.03,0c-37.559,-0.001 -68.115,-30.727 -68.115,-68.495l0,-195.497c0,-37.768 30.556,-68.494 68.115,-68.494l353.77,0c37.559,0 68.115,30.727 68.115,68.494l0,195.497c0,37.768 -30.556,68.494 -68.115,68.494l-18.071,0l0,76.549c0,3.891 -2.243,7.428 -5.752,9.067c-1.339,0.626 -2.769,0.933 -4.19,0.933zm-325.757,-399.034c-26.592,0 -48.226,21.754 -48.226,48.494l0,195.497c0,26.739 21.634,48.494 48.226,48.494l223.662,0c2.346,0 4.616,0.834 6.411,2.354l85.737,72.685l0,-65.039c0,-5.523 4.453,-10 9.945,-10l28.015,0c26.592,0 48.226,-21.755 48.226,-48.494l0,-195.497c0,-26.74 -21.634,-48.494 -48.226,-48.494l-353.77,0z"/>
   </g>
   <g id="svg_4">
    <g id="svg_5">
     <path fill="#3f007f" id="svg_6" d="m405.168,147.469l-320.336,0c-5.492,0 -9.944,-4.478 -9.944,-10c0,-5.523 4.452,-10 9.944,-10l320.335,0c5.492,0 9.944,4.477 9.944,10c0,5.522 -4.451,10 -9.943,10z"/>
    </g>
    <g id="svg_7">
     <path fill="#3f007f" id="svg_8" d="m405.168,211.503l-320.336,0c-5.492,0 -9.944,-4.478 -9.944,-10c0,-5.523 4.452,-10 9.944,-10l320.335,0c5.492,0 9.944,4.477 9.944,10c0,5.522 -4.451,10 -9.943,10z"/>
    </g>
    <g id="svg_9">
     <path fill="#3f007f" id="svg_10" d="m405.168,275.538l-320.336,0c-5.492,0 -9.944,-4.478 -9.944,-10c0,-5.523 4.452,-10 9.944,-10l320.335,0c5.492,0 9.944,4.476 9.944,10c0,5.522 -4.451,10 -9.943,10z"/>
    </g>
   </g>
  </g>
  <g id="svg_11"/>
  <g id="svg_12"/>
  <g id="svg_13"/>
  <g id="svg_14"/>
  <g id="svg_15"/>
  <g id="svg_16"/>
  <g id="svg_17"/>
  <g id="svg_18"/>
  <g id="svg_19"/>
  <g id="svg_20"/>
  <g id="svg_21"/>
  <g id="svg_22"/>
  <g id="svg_23"/>
  <g id="svg_24"/>
  <g id="svg_25"/>
 </g>
</svg>

<?xml version="1.0" encoding="iso-8859-1"?>
<!-- Generator: Adobe Illustrator 18.0.0, SVG Export Plug-In . SVG Version: 6.00 Build 0)  -->
<!DOCTYPE svg PUBLIC "-//W3C//DTD SVG 1.1//EN" "http://www.w3.org/Graphics/SVG/1.1/DTD/svg11.dtd">
<svg version="1.1" id="Capa_1" xmlns="http://www.w3.org/2000/svg" xmlns:xlink="http://www.w3.org/1999/xlink" x="0px" y="0px"
	 viewBox="0 0 490 490" style="enable-background:new 0 0 490 490;" fill="#F8B83A" xml:space="preserve">
<g>
	<g>
		<path d="M393.872,454.517c-2.304,0-4.583-0.804-6.412-2.354l-99.315-84.194H68.115C30.556,367.968,0,337.242,0,299.474V103.977
			c0-37.768,30.556-68.494,68.115-68.494h353.77c37.559,0,68.115,30.727,68.115,68.494v195.497
			c0,37.768-30.556,68.494-68.115,68.494h-18.071v76.549c0,3.891-2.243,7.428-5.752,9.067
			C396.723,454.21,395.293,454.517,393.872,454.517z M68.115,55.483c-26.592,0-48.226,21.754-48.226,48.494v195.497
			c0,26.739,21.634,48.494,48.226,48.494h223.662c2.346,0,4.616,0.834,6.411,2.354l85.737,72.685v-65.039c0-5.523,4.453-10,9.945-10
			h28.015c26.592,0,48.226-21.755,48.226-48.494V103.977c0-26.74-21.634-48.494-48.226-48.494H68.115z"/>
	</g>
	<g>
		<g>
			<path d="M405.168,147.469H84.832c-5.492,0-9.944-4.478-9.944-10c0-5.523,4.452-10,9.944-10h320.335c5.492,0,9.944,4.477,9.944,10
				C415.111,142.991,410.66,147.469,405.168,147.469z"/>
		</g>
		<g>
			<path d="M405.168,211.503H84.832c-5.492,0-9.944-4.478-9.944-10c0-5.523,4.452-10,9.944-10h320.335c5.492,0,9.944,4.477,9.944,10
				C415.111,207.025,410.66,211.503,405.168,211.503z"/>
		</g>
		<g>
			<path d="M405.168,275.538H84.832c-5.492,0-9.944-4.478-9.944-10c0-5.523,4.452-10,9.944-10h320.335c5.492,0,9.944,4.476,9.944,10
				C415.111,271.06,410.66,275.538,405.168,275.538z"/>
		</g>
	</g>
</g>
<g>
</g>
<g>
</g>
<g>
</g>
<g>
</g>
<g>
</g>
<g>
</g>
<g>
</g>
<g>
</g>
<g>
</g>
<g>
</g>
<g>
</g>
<g>
</g>
<g>
</g>
<g>
</g>
<g>
</g>
</svg>
